!!!OTL: 752. Wandern und Abschied.
!!!ARE: Europa, Mitteleuropa, Deutschland
!!!SCT: E0752
!!!TXL: @@GOH
!!!YEM: Copyright 1995, estate of Helmut Schaffrath.
**kern	**text
*ICvox	*
*M4/4	*
*met(c)	*
*k[b-]	*
*F:	*
=1	=1
!LO:TX:a:t=Forſter III 1549. Nr. 65.	!
2r	.
4r	.
{4f	Wol-
=1	=1
4f	-auf,
4cc	gut
4a	Gſell
4f	von
=2	=2
2g	hin-
4a}	-nen,
{4a	meins
=3	=3
2dd	Blei-
4cc	-bens
4cc	iſt
=4	=4
(4b-	hie
4a)	.
2g	nit
=5	=5
2f	meh!
4r}	.
{4f	der
=6	=6
4f	Mai-
4cc	-e
4a	thut
4f	uns
=7	=7
2g	brin-
4a}	-gen
{4a	den
=8	=8
2dd	Vei-
4cc	-el
4cc	und
=9	=9
(4b-	grü-
4a)	.
2g	-nen
=10	=10
2f	Klee.
4r}	.
{4f	Vorm
=11	=11
4a	Wal-
4a	-de
4f	hört
4f	man
=12	=12
2g	ſin-
4f}	-gen
{4cc	der
=13	=13
2g	klei-
4cc	-nen
[4b-	Vög-
=14	=14
4b-]	.
4a	-lein
2g	Gſang;
=15	=15
4r}	.
{4cc	ſie
4cc	ſin-
4cc	-gen
=16	=16
4cc	mit
2cc	hel-
4b-	-ler
=17	=17
(4a	Stim-
8gL	.
8fJ	.
2g)	.
=18	=18
4f}	-men
{4f	den
4f	gan-
4f	-ʒen
=19	=19
(<4b-	Som-
4a)	.
2g	-mer
=20	=20
2.f}	lang.
==	==
!!!AGN: Abschieds - Lied, Wander - Lied
!!!ONB: ESAC (Essen Associative Code) Database: ERK2
!!!AMT: simple quadruple
!!!AIN: vox
!!!EED: Helmut Schaffrath
!!!EEV: 1.0
!!!RDF**kern: < = below
!!!GTL: Abschieds- und Wanderlieder
!!!URL-scan: https://rosdok.uni-rostock.de/mcrviewer/recordIdentifier/rosdok_ppn745177662/iview2/phys_0560.iview2?x=193.8995864193107&y=1282.4700658917427&scale=0.7029437510502773&rotation=0&layout=singlePageLayout
!!!ENC: Anna Maria Matuszewska
!!!EEV: 2024/12/16
*-	*-
